X: 18
T:The Rollicking Boys Around Tandaragee
M:6/8
L:1/8
F:http://blackrosetheband.googlepages.com/ABCTUNES.ABC May 2009
S:Kevin Burke Live Track 6
K:Em
"Em"BEB E2B|BAB d2B|BAF DED|FED FGA|
BEB EzB|BAB def|edB AFA| BEE EFA:|
Bee efe|def afd|efe ~d3|~B3 dBA|
B e3 fe|def afd|ezB AFA|BEE EFA:|

